X:27
T:De post
C:Tielman Susato
B:Tielman Susato: Danserye (1551) no. 27
R:Branle
Z:Transcribed by Frank Nordberg - http://www.musicaviva.com
F:http://abc.musicaviva.com/tunes/susato-tielman/susato-1551-27.abc
M:6/2
L:1/2
K:C
V:1
A2AG2E|F2DE2E|A2AG2E|F2FE2E::D2CD2E|F2DE2E|D2CD2E|F2FE2E:|
V:2
C2CC2C|A,2B,C2C|C2CC2C|A,2A,^C2^C::A,2A,A,2B,/C/|D2A,C2C|A,2A,A,2B,/C/|D2A,C2C:|
V:3
F,2F,G,2A,|F,2G,E,2E,|F,2F,G,2A,|F,2F,A,3::F,2E,F,2G,|A,2F,G,2G,|F,2E,F,2G,|A,2F,G,2G,:|
V:4
F,,2F,,C,2C,|D,2G,,C,2C,|F,,2F,,C,2C,|D,2D,A,,2A,,::D,2A,,D,F,E,|D,2D,C,2C,|D,2A,,D,F,E,|D,2D,C,2C,:|
W:
W:
W:  From Musica Viva - http://www.musicaviva.com
W:  the Internet center for free sheet music downloads.
